X:91
T:Tabhair Dom Do Lámh
S:The Session: https://thesession.org/tunes/454#setting454
C:Traditional
R:waltz
K:G
M:3/4
L:1/8
Q:1/4=96
D2|: E2 G2 G2| G4 D2| E2 G2 G>A| G4 D2| E2 G2 G2| G2 A2 B2| B2 e2 de| B4 AG|
| A2 A2 ed| B2 B2 dB| A2 AB AG| E4 D2| E2 G2 G2| G4 D2| E2 G2 G2| G4 D2|
| E2 G2 G2| G2 A2 B2| de dB AB| G4 D2|E2 G2 G2| G2 A2 B2| B2 e2 d2| B4 AG|
| A2 A2 ed| B2 B2 dB| A2 AB cd| e4 dB| d2 d2 e2| g4 ed| e2 e2 (3geg| a4 de|
| g2 g2 de| g2 g2 de| g2 g2 (3aga| b6| b2 b2 b2| b4 ag| a2 ag ab| a4 gf|
| e3 f2 (3gfe| d2 d2 g2| B3 d cB| A4 (3cBA|G2 GA Bd| =f4 ed| e2 e2 g2| e4 dB|
| d2 d2 g2| B2 B2 dB| A2 AB (3cBA| G6:|] y500

